badamchi.safa/img/icon/search.svg

<?xml version="1.0" encoding="utf-8"?>
<svg xmlns="http://www.w3.org/2000/svg" viewBox="0 0 64 64" fill="#e23175"><path d="M 28.300781 10.800781 C 17.100781 10.800781 7.9003906 20.000391 7.9003906 31.400391 C 7.9003906 42.800391 17.000781 52 28.300781 52 C 33.500781 52 38.200781 50.000781 41.800781 46.800781 L 43 48 L 41.900391 49.099609 C 41.300391 49.699609 41.300391 50.700781 41.900391 51.300781 L 50.900391 60.400391 C 51.200391 60.700391 51.6 60.900391 52 60.900391 C 52.4 60.900391 52.8 60.800391 53 60.400391 L 57 56.400391 C 57.5 55.700391 57.500391 54.799219 56.900391 54.199219 L 47.900391 45.099609 C 47.600391 44.799609 47.200781 44.699219 46.800781 44.699219 C 46.400781 44.699219 46.000781 44.799609 45.800781 45.099609 L 44.800781 46.199219 L 43.599609 45 C 46.799609 41.3 48.699219 36.600391 48.699219 31.400391 C 48.699219 20.000391 39.500781 10.800781 28.300781 10.800781 z M 28.300781 13.900391 C 37.900781 13.900391 45.699219 21.8 45.699219 31.5 C 45.699219 41.2 37.900781 49 28.300781 49 C 18.700781 49 10.900391 41.2 10.900391 31.5 C 10.900391 21.8 18.700781 13.900391 28.300781 13.900391 z M 28.400391 20.099609 C 23.600391 20.099609 19.400781 23.099609 17.800781 27.599609 C 17.500781 28.299609 17.9 29.100781 18.5 29.300781 C 18.6 29.300781 18.8 29.400391 19 29.400391 C 19.5 29.400391 20.000781 29 20.300781 28.5 C 21.500781 25 24.800391 22.699219 28.400391 22.699219 C 29.100391 22.699219 29.699219 22.100391 29.699219 21.400391 C 29.699219 20.700391 29.100391 20.099609 28.400391 20.099609 z M 18.900391 32.5 C 18.200391 32.5 17.599609 33.000781 17.599609 33.800781 L 17.599609 34 C 17.599609 34.7 18.100391 35.300781 18.900391 35.300781 C 19.600391 35.300781 20.199219 34.7 20.199219 34 L 20.199219 33.800781 C 20.199219 33.000781 19.700391 32.5 18.900391 32.5 z M 46.900391 48.300781 L 53.800781 55.300781 L 51.900391 57.199219 L 45 50.199219 L 46.900391 48.300781 z" fill="#e23175"/></svg>

<?xml version="1.0" encoding="utf-8"?>
<!-- Generator: Adobe Illustrator 25.0.1, SVG Export Plug-In . SVG Version: 6.00 Build 0)  -->
<svg version="1.1" id="Layer_1" xmlns="http://www.w3.org/2000/svg" xmlns:xlink="http://www.w3.org/1999/xlink" x="0px" y="0px"
	 viewBox="0 0 64 64" style="enable-background:new 0 0 64 64;" xml:space="preserve">
<style type="text/css">
	.st0{fill:#757575;}
</style>
<path class="st0" d="M28.3,10.8C17.1,10.8,7.9,20,7.9,31.4S17,52,28.3,52c5.2,0,9.9-2,13.5-5.2L43,48l-1.1,1.1
	c-0.6,0.6-0.6,1.6,0,2.2l9,9.1c0.3,0.3,0.7,0.5,1.1,0.5s0.8-0.1,1-0.5l4-4c0.5-0.7,0.5-1.6-0.1-2.2l-9-9.1c-0.3-0.3-0.7-0.4-1.1-0.4
	s-0.8,0.1-1,0.4l-1,1.1L43.6,45c3.2-3.7,5.1-8.4,5.1-13.6C48.7,20,39.5,10.8,28.3,10.8z M28.3,13.9c9.6,0,17.4,7.9,17.4,17.6
	S37.9,49,28.3,49s-17.4-7.8-17.4-17.5S18.7,13.9,28.3,13.9z M28.4,20.1c-4.8,0-9,3-10.6,7.5c-0.3,0.7,0.1,1.5,0.7,1.7
	c0.1,0,0.3,0.1,0.5,0.1c0.5,0,1-0.4,1.3-0.9c1.2-3.5,4.5-5.8,8.1-5.8c0.7,0,1.3-0.6,1.3-1.3C29.7,20.7,29.1,20.1,28.4,20.1z
	 M18.9,32.5c-0.7,0-1.3,0.5-1.3,1.3V34c0,0.7,0.5,1.3,1.3,1.3c0.7,0,1.3-0.6,1.3-1.3v-0.2C20.2,33,19.7,32.5,18.9,32.5z M46.9,48.3
	l6.9,7l-1.9,1.9l-6.9-7L46.9,48.3z"/>
</svg>
